src/assets/images/Icon-3.svg

<svg width="80" height="80" viewBox="0 0 80 80" fill="none" xmlns="http://www.w3.org/2000/svg">
<path d="M40 6.1015C21.3082 6.1015 6.1015 21.3082 6.1015 40C6.1015 58.6918 21.3082 73.8985 40 73.8985C58.6918 73.8985 73.8985 58.6918 73.8985 40C73.8985 21.3082 58.6918 6.1015 40 6.1015ZM40 67.122C25.046 67.122 12.878 54.955 12.878 40C12.878 25.045 25.0455 12.878 40 12.878C54.9545 12.878 67.122 25.0455 67.122 40C67.122 54.9545 54.9545 67.122 40 67.122Z" fill="white"/>
<path d="M43.3343 39.021C43.3617 38.8477 43.3879 38.6749 43.3879 38.4937V23.7172C43.3879 21.8464 41.8706 20.3291 39.9998 20.3291C38.129 20.3291 36.6117 21.8464 36.6117 23.7172V38.495C36.6117 38.7834 36.5755 42.0633 37.6396 43.0171L48.1243 52.4162C48.7708 52.9966 49.5796 53.2812 50.3847 53.2812C51.3138 53.2812 52.2398 52.901 52.9093 52.1547C54.1583 50.7608 54.0417 48.6195 52.6483 47.3705L43.3343 39.021Z" fill="white"/>
</svg>

<svg xmlns="http://www.w3.org/2000/svg" width="80" height="80" fill="none"><path fill="#fff" d="M40 6.101C21.308 6.101 6.102 21.309 6.102 40S21.308 73.898 40 73.898c18.692 0 33.898-15.206 33.898-33.898C73.898 21.308 58.692 6.102 40 6.102Zm0 61.021c-14.954 0-27.122-12.167-27.122-27.122S25.046 12.878 40 12.878c14.955 0 27.122 12.168 27.122 27.122 0 14.955-12.167 27.122-27.122 27.122Z"/><path fill="#fff" d="M43.334 39.021c.028-.173.054-.346.054-.527V23.717a3.389 3.389 0 0 0-6.776 0v14.778c0 .288-.037 3.568 1.028 4.522l10.484 9.4c.647.58 1.456.864 2.26.864a3.388 3.388 0 0 0 2.264-5.91l-9.314-8.35Z"/></svg>
